svg/table_clock.svg

<svg xmlns="http://www.w3.org/2000/svg" viewBox="0 0 24 24"><path d="m16.5 15.82 2.44 1.41-.75 1.3L15 16.69V13h1.5zm3.5-5.56V5a2 2 0 0 0-2-2H4c-1.1 0-2 .9-2 2v12a2 2 0 0 0 2 2h5.68c1.13 2.36 3.53 4 6.32 4 3.87 0 7-3.13 7-7 0-2.38-1.19-4.47-3-5.74M18 7v2.29c-.63-.18-1.3-.29-2-.29-1.5 0-2.87.47-4 1.26V7zM4 7h6v4H4zm0 10v-4h5.68A7 7 0 0 0 9 16c0 .34.03.67.08 1zm12 4c-2.76 0-5-2.24-5-5s2.24-5 5-5 5 2.24 5 5-2.24 5-5 5"/></svg>

<?xml version="1.0" encoding="UTF-8"?><!DOCTYPE svg PUBLIC "-//W3C//DTD SVG 1.1//EN" "http://www.w3.org/Graphics/SVG/1.1/DTD/svg11.dtd"><svg xmlns="http://www.w3.org/2000/svg" xmlns:xlink="http://www.w3.org/1999/xlink" version="1.1" id="mdi-table-clock" width="24" height="24" viewBox="0 0 24 24"><path d="M16.5 15.82L18.94 17.23L18.19 18.53L15 16.69V13H16.5V15.82M20 10.26V5C20 3.9 19.11 3 18 3H4C2.9 3 2 3.9 2 5V17C2 18.11 2.9 19 4 19H9.68C10.81 21.36 13.21 23 16 23C19.87 23 23 19.87 23 16C23 13.62 21.81 11.53 20 10.26M18 7V9.29C17.37 9.11 16.7 9 16 9C14.5 9 13.13 9.47 12 10.26V7H18M4 7H10V11H4V7M4 17V13H9.68C9.25 13.91 9 14.93 9 16C9 16.34 9.03 16.67 9.08 17H4M16 21C13.24 21 11 18.76 11 16S13.24 11 16 11 21 13.24 21 16 18.76 21 16 21Z" /></svg>
